src/assets/cards/7S.svg

<svg clip-rule="evenodd" fill-rule="evenodd" stroke-linejoin="round" stroke-miterlimit="2" viewBox="0 0 934 1300" xmlns="http://www.w3.org/2000/svg"><g fill-rule="nonzero"><path d="m53.033 194.186c8.881-46.2 18.364-80.872 43.252-118.53h-50.566v16.207h-13.435v-30.545h73.974l9.119 14.338c-26.418 28.325-50.616 119.873-46.325 118.53z"/><path d="m880.301 1105.81c-8.882 46.21-18.378 80.88-43.253 118.54h50.566v-16.21h13.435v30.54h-73.973l-9.12-14.33c26.418-28.32 50.616-119.87 46.326-118.54z"/><path d="m222.834 292.082c.084-8.442-6.625-8.6-6.541-2.442-.542 30.954-26.709 46.196-45.75 42.579-29.334-5.575-38.667-34.675-38.375-51.812.833-52.905 54.125-91.913 102.166-159.73 35.209 61.213 93.292 109.292 96.75 156.609 4.584 62.908-75.041 86.371-86.416 13.05-.709-5.179-6.834-7.504-6.334-.271 1.709 20.096-.75 28.467 21.917 78h-59.25c13.125-23.146 20.958-51.563 21.833-75.983z"/><path d="m687.543 292.082c.083-8.442-6.584-8.6-6.5-2.442-.584 30.954-26.75 46.196-45.792 42.579-29.292-5.575-38.667-34.675-38.375-51.812.875-52.905 54.125-91.913 102.167-159.73 35.208 61.213 93.333 109.292 96.75 156.609 4.583 62.908-75.042 86.371-86.375 13.05-.75-5.179-6.834-7.504-6.375-.271 1.708 20.096-.75 28.467 21.958 78h-59.292c13.125-23.146 20.959-51.563 21.834-75.983z"/><path d="m458.001 500.932c.042-8.438-6.625-8.6-6.542-2.442-.583 30.954-26.75 46.196-45.791 42.579-29.292-5.571-38.667-34.675-38.375-51.812.875-52.905 54.125-91.913 102.166-159.73 35.209 61.213 93.334 109.292 96.75 156.609 4.584 62.908-75 86.375-86.375 13.054-.75-5.179-6.833-7.504-6.375-.271 1.709 20.092-.708 28.463 21.959 77.996h-59.25c13.083-23.146 20.916-51.558 21.833-75.983z"/><path d="m687.543 709.782c.083-8.438-6.584-8.6-6.5-2.438-.584 30.95-26.75 46.192-45.792 42.575-29.292-5.571-38.667-34.675-38.375-51.812.875-52.9 54.125-91.909 102.167-159.73 35.208 61.213 93.333 109.292 96.75 156.609 4.583 62.908-75.042 86.375-86.375 13.054-.75-5.179-6.834-7.504-6.375-.271 1.708 20.092-.75 28.463 21.958 77.996h-59.292c13.125-23.146 20.959-51.558 21.834-75.979z"/><path d="m222.834 709.782c.084-8.438-6.625-8.6-6.541-2.438-.542 30.95-26.709 46.192-45.75 42.575-29.334-5.571-38.667-34.675-38.375-51.812.833-52.9 54.125-91.909 102.166-159.73 35.209 61.213 93.292 109.292 96.75 156.609 4.584 62.908-75.041 86.375-86.416 13.054-.709-5.179-6.834-7.504-6.334-.271 1.709 20.092-.75 28.463 21.917 77.996h-59.25c13.125-23.146 20.958-51.558 21.833-75.979z"/><path d="m687.584 1025.29c.084 8.45-6.583 8.61-6.5 2.45-.583-30.958-26.75-46.196-45.75-42.583-29.333 5.575-38.708 34.673-38.416 51.813.875 52.9 54.125 91.91 102.166 159.73 35.209-61.21 93.334-109.29 96.75-156.61 4.584-62.904-75-86.371-86.375-13.05-.75 5.18-6.833 7.5-6.375.27 1.75-20.09-.708-28.462 21.959-77.995h-59.292c13.125 23.142 20.958 51.555 21.833 75.975z"/><path d="m222.876 1025.29c.083 8.45-6.583 8.61-6.542 2.45-.541-30.958-26.708-46.196-45.75-42.583-29.291 5.575-38.666 34.673-38.375 51.813.875 52.9 54.125 91.91 102.167 159.73 35.208-61.21 93.333-109.29 96.75-156.61 4.583-62.904-75.042-86.371-86.417-13.05-.708 5.18-6.833 7.5-6.333.27 1.708-20.09-.75-28.462 21.917-77.995h-59.25c13.125 23.142 20.958 51.555 21.833 75.975z"/><path d="m72.743 296.298c.041-3.633-3.729-1.937-4.242-.796-4.846 8.275-11.937 10.2-18.95 7.217-6.946-2.954-10.85-9.5-10.225-18.842 1.292-14.325 12.65-29.995 18.146-38.858 5.217-8.042 10.95-17.592 16.987-29.808 7.071 14.012 10.663 18 18.355 30.796 6.775 11.27 16.229 22.304 16.937 35.929 0 10.354-4.346 20.129-14.154 21.912-5.546 1.009-10.742-1.841-14.6-8.487-1.171-1.692-3.533-.809-3.496 1.508.688 8.721 3.983 16.596 11.792 25.883h-28.696c5.875-6.566 11.867-15.433 12.146-26.454z"/><path d="m859.459 1016.07c.042 3.63-3.708 1.94-4.208.8-4.875-8.28-11.958-10.2-18.958-7.22-6.959 2.95-10.875 9.5-10.25 18.84 1.291 14.33 12.666 30 18.166 38.86 5.209 8.04 10.959 17.59 17 29.81 7.042-14.02 10.625-18 18.334-30.8 6.791-11.27 16.208-22.3 16.958-35.93 0-10.35-4.375-20.13-14.167-21.91-5.541-1.01-10.75 1.84-14.583 8.49-1.208 1.69-3.542.81-3.5-1.51.667-8.72 3.958-16.598 11.792-25.885h-28.709c5.875 6.567 11.875 15.435 12.125 26.455z"/></g></svg>

<?xml version="1.0" encoding="UTF-8" standalone="no"?>
<!DOCTYPE svg PUBLIC "-//W3C//DTD SVG 1.1//EN" "http://www.w3.org/Graphics/SVG/1.1/DTD/svg11.dtd">
<svg width="100%" height="100%" viewBox="0 0 934 1300" version="1.1" xmlns="http://www.w3.org/2000/svg" xmlns:xlink="http://www.w3.org/1999/xlink" xml:space="preserve" xmlns:serif="http://www.serif.com/" style="fill-rule:evenodd;clip-rule:evenodd;stroke-linejoin:round;stroke-miterlimit:2;">
    <g id="_7S" serif:id="7S">
        <g id="path7110-5">
            <path d="M53.033,194.186C61.914,147.986 71.397,113.314 96.285,75.656L45.719,75.656L45.719,91.863L32.284,91.863L32.284,61.318L106.258,61.318L115.377,75.656C88.959,103.981 64.761,195.529 69.052,194.186L53.033,194.186Z" style="fill-rule:nonzero;"/>
        </g>
        <g id="path7126-4">
            <path d="M880.301,1105.81C871.419,1152.02 861.923,1186.69 837.048,1224.35L887.614,1224.35L887.614,1208.14L901.049,1208.14L901.049,1238.68L827.076,1238.68L817.956,1224.35C844.374,1196.03 868.572,1104.48 864.282,1105.81L880.301,1105.81Z" style="fill-rule:nonzero;"/>
        </g>
        <g id="path3212">
            <path d="M222.834,292.082C222.918,283.64 216.209,283.482 216.293,289.64C215.751,320.594 189.584,335.836 170.543,332.219C141.209,326.644 131.876,297.544 132.168,280.407C133.001,227.502 186.293,188.494 234.334,120.677C269.543,181.89 327.626,229.969 331.084,277.286C335.668,340.194 256.043,363.657 244.668,290.336C243.959,285.157 237.834,282.832 238.334,290.065C240.043,310.161 237.584,318.532 260.251,368.065L201.001,368.065C214.126,344.919 221.959,316.502 222.834,292.082Z" style="fill-rule:nonzero;"/>
        </g>
        <g id="path3214">
            <path d="M687.543,292.082C687.626,283.64 680.959,283.482 681.043,289.64C680.459,320.594 654.293,335.836 635.251,332.219C605.959,326.644 596.584,297.544 596.876,280.407C597.751,227.502 651.001,188.494 699.043,120.677C734.251,181.89 792.376,229.969 795.793,277.286C800.376,340.194 720.751,363.657 709.418,290.336C708.668,285.157 702.584,282.832 703.043,290.065C704.751,310.161 702.293,318.532 725.001,368.065L665.709,368.065C678.834,344.919 686.668,316.502 687.543,292.082Z" style="fill-rule:nonzero;"/>
        </g>
        <g id="path3216">
            <path d="M458.001,500.932C458.043,492.494 451.376,492.332 451.459,498.49C450.876,529.444 424.709,544.686 405.668,541.069C376.376,535.498 367.001,506.394 367.293,489.257C368.168,436.352 421.418,397.344 469.459,329.527C504.668,390.74 562.793,438.819 566.209,486.136C570.793,549.044 491.209,572.511 479.834,499.19C479.084,494.011 473.001,491.686 473.459,498.919C475.168,519.011 472.751,527.382 495.418,576.915L436.168,576.915C449.251,553.769 457.084,525.357 458.001,500.932Z" style="fill-rule:nonzero;"/>
        </g>
        <g id="path3218">
            <path d="M687.543,709.782C687.626,701.344 680.959,701.182 681.043,707.344C680.459,738.294 654.293,753.536 635.251,749.919C605.959,744.348 596.584,715.244 596.876,698.107C597.751,645.207 651.001,606.198 699.043,538.377C734.251,599.59 792.376,647.669 795.793,694.986C800.376,757.894 720.751,781.361 709.418,708.04C708.668,702.861 702.584,700.536 703.043,707.769C704.751,727.861 702.293,736.232 725.001,785.765L665.709,785.765C678.834,762.619 686.668,734.207 687.543,709.786L687.543,709.782Z" style="fill-rule:nonzero;"/>
        </g>
        <g id="path3220">
            <path d="M222.834,709.782C222.918,701.344 216.209,701.182 216.293,707.344C215.751,738.294 189.584,753.536 170.543,749.919C141.209,744.348 131.876,715.244 132.168,698.107C133.001,645.207 186.293,606.198 234.334,538.377C269.543,599.59 327.626,647.669 331.084,694.986C335.668,757.894 256.043,781.361 244.668,708.04C243.959,702.861 237.834,700.536 238.334,707.769C240.043,727.861 237.584,736.232 260.251,785.765L201.001,785.765C214.126,762.619 221.959,734.207 222.834,709.786L222.834,709.782Z" style="fill-rule:nonzero;"/>
        </g>
        <g id="path3304">
            <path d="M687.584,1025.29C687.668,1033.74 681.001,1033.9 681.084,1027.74C680.501,996.782 654.334,981.544 635.334,985.157C606.001,990.732 596.626,1019.83 596.918,1036.97C597.793,1089.87 651.043,1128.88 699.084,1196.7C734.293,1135.49 792.418,1087.41 795.834,1040.09C800.418,977.186 720.834,953.719 709.459,1027.04C708.709,1032.22 702.626,1034.54 703.084,1027.31C704.834,1007.22 702.376,998.848 725.043,949.315L665.751,949.315C678.876,972.457 686.709,1000.87 687.584,1025.29Z" style="fill-rule:nonzero;"/>
        </g>
        <g id="path3306">
            <path d="M222.876,1025.29C222.959,1033.74 216.293,1033.9 216.334,1027.74C215.793,996.782 189.626,981.544 170.584,985.157C141.293,990.732 131.918,1019.83 132.209,1036.97C133.084,1089.87 186.334,1128.88 234.376,1196.7C269.584,1135.49 327.709,1087.41 331.126,1040.09C335.709,977.186 256.084,953.719 244.709,1027.04C244.001,1032.22 237.876,1034.54 238.376,1027.31C240.084,1007.22 237.626,998.848 260.293,949.315L201.043,949.315C214.168,972.457 222.001,1000.87 222.876,1025.29Z" style="fill-rule:nonzero;"/>
        </g>
        <g id="path3324">
            <path d="M72.743,296.298C72.784,292.665 69.014,294.361 68.501,295.502C63.655,303.777 56.564,305.702 49.551,302.719C42.605,299.765 38.701,293.219 39.326,283.877C40.618,269.552 51.976,253.882 57.472,245.019C62.689,236.977 68.422,227.427 74.459,215.211C81.53,229.223 85.122,233.211 92.814,246.007C99.589,257.277 109.043,268.311 109.751,281.936C109.751,292.29 105.405,302.065 95.597,303.848C90.051,304.857 84.855,302.007 80.997,295.361C79.826,293.669 77.464,294.552 77.501,296.869C78.189,305.59 81.484,313.465 89.293,322.752L60.597,322.752C66.472,316.186 72.464,307.319 72.743,296.298Z" style="fill-rule:nonzero;"/>
        </g>
        <g id="path3348">
            <path d="M859.459,1016.07C859.501,1019.7 855.751,1018.01 855.251,1016.87C850.376,1008.59 843.293,1006.67 836.293,1009.65C829.334,1012.6 825.418,1019.15 826.043,1028.49C827.334,1042.82 838.709,1058.49 844.209,1067.35C849.418,1075.39 855.168,1084.94 861.209,1097.16C868.251,1083.14 871.834,1079.16 879.543,1066.36C886.334,1055.09 895.751,1044.06 896.501,1030.43C896.501,1020.08 892.126,1010.3 882.334,1008.52C876.793,1007.51 871.584,1010.36 867.751,1017.01C866.543,1018.7 864.209,1017.82 864.251,1015.5C864.918,1006.78 868.209,998.902 876.043,989.615L847.334,989.615C853.209,996.182 859.209,1005.05 859.459,1016.07Z" style="fill-rule:nonzero;"/>
        </g>
    </g>
</svg>
